!!!!SEGMENT: pl-wtm--r-730-36-m_moniuszko-stanislaw--krakowiak.krn
!!!cenid: 18xx:1716
!!!COM: Moniuszko, Stanisław
!!!COM-rismID: pe30008351
!!!CDT: 1819/05/05-1872/06/04
!!!CNT: Polish
!!!OTL: Krakowiak
!!!PDT:
!!!AGN: Secular
!!!SMS-siglum: PL-Wtm
!!!SMS-shelfmark: R 730/36/M
!!!SMS-shelfwork: W
!!!SMS-variant:
!!!SMS-altvar:
!!!NIFC-rismSourceID: 1001099848
!!!NIFC-islandoraID:
!!!URL-pdf-islandora:
!!!URL-scan:
!!!ONB-nifc: Skan 0040, R 730|36
!!!AIN: 1 forte 1 vox
!!!key:
**kern	**kern	**dynam	**kern
*part2	*part2	*part2	*part1
*staff3	*staff2	*	*staff1
*Iforte	*Iempty	*	*Ivox
*I"Fortepian	*	*	*I"Głos
*I'P-no	*	*	*I'C.
*clefF4	*clefG2	*	*clefG2
*k[f#c#g#d#]	*k[f#c#g#d#]	*	*k[f#c#g#d#]
*E:	*E:	*	*E:
*M2/4	*M2/4	*	*M2/4
=1	=1	=1	=1
4E/ 4EE/	4r	p	2r
4r	4g#/ 4e/ 4B/	.	.
=2	=2	=2	=2
*rep	*rep	*	*
4E/ 4EE/	4r	.	4r
4r	4g#/ 4e/ 4B/	.	8r
.	.	.	8b/
*Xrep	*Xrep	*	*
=3	=3	=3	=3
*rep	*rep	*	*
4E/ 4EE/	4r	.	8a#X/L
.	.	.	8b/J
4r	4g#/ 4e/ 4B/	.	8.cc#/
.	.	.	16b/
*Xrep	*Xrep	*	*
=4	=4	=4	=4
*rep	*rep	*	*
4E/ 4EE/	4r	.	4.ee\
4r	4g#/ 4e/ 4B/	.	.
.	.	.	8dd#\
*Xrep	*Xrep	*	*
=5	=5	=5	=5
4AA/	4r	.	8.dd#\
.	.	.	16cc#\
4r	4a/ 4e/ 4c#/	.	8a/
.	.	.	8cc#\
=6	=6	=6	=6
4E\	4r	.	4b\
4r	4g#/ 4e/ 4B/	.	8r
.	.	.	8g#/
=7	=7	=7	=7
4E\	4r	.	8f##X/L
.	.	.	8g#/J
4r	4g#/ 4e/ 4B/	.	8.a/
.	.	.	16g#/
=8	=8	=8	=8
4D#\	4r	.	4.b/
4r	4b/ 4f#/ 4B/	.	.
.	.	.	8a/
=9	=9	=9	=9
4E\	4r	.	8.a/
.	.	.	16g#/
4r	4g#/ 4e/ 4B/	.	8e/
.	.	.	8g#/
=10	=10	=10	=10
4BB/	4r	.	4f#/
4r	4f#/ 4d#/ 4B/	.	8r
.	.	.	8b\
=11	=11	=11	=11
4BB/	4r	.	8b/L
.	.	.	8a#X/J
4r	4g#/ 4dn/ 4B/	.	8b\
.	.	.	8cc#\
!!LO:LB:g=original
=12	=12	=12	=12
4Dn\	4r	.	4ddn\
4r	4a/ 4dn/ 4A/	.	8dd\
.	.	.	8dd\
=13	=13	=13	=13
4Dn\	4r	.	8cc#\L
.	.	.	8b\J
4r	4fn/ 4dn/ 4A/	.	8a/
.	.	.	8b/
=14	=14	=14	=14
4AA/	4r	.	4cc#\
4r	4e/ 4c#/ 4A/	.	8r
.	.	.	8a/
=15	=15	=15	=15
4AA/	4r	.	8a/L
.	.	.	8g#/J
4r	4e/ 4cn/ 4A/	.	8a/
.	.	.	8b/
=16	=16	=16	=16
4Cn\	4r	.	4.ccn\
4r	4e/ 4cn/ 4Gn/	.	.
.	.	.	8cc\
=17	=17	=17	=17
4Cn\	4r	.	8.b/
.	.	.	16a/
4r	4e-X/ 4cn/ 4Gn</	.	8gn/
.	.	.	8a/
=18	=18	=18	=18
4GGn/	4r	.	4b\
4r	4dn/ 4B/ 4Gn</	.	8r
.	.	.	8b\
=19	=19	=19	=19
4FF#/	4r	.	8a#X/L
.	.	.	8b/J
4r	4d#X/ 4B/ 4A/	.	8cc#\
.	.	.	8b\
=20	=20	=20	=20
4EE/	4r	.	4ee\
4r	4e/ 4B/ 4G#/	.	8ee\
.	.	.	8dd#\
=21	=21	=21	=21
4E\	4r	.	8ff#\L
.	.	.	8ee\J
4r	4a/ 4e/ 4c#/	.	8dd#\
.	.	.	8cc#\
!!LO:LB:g=original
=22	=22	=22	=22
4D#\	4r	.	4b\
4r	4a/ 4f#/ 4B/	.	8r
.	.	.	8b\
=23	=23	=23	=23
4BB/	4r	.	8a#X/L
.	.	.	8b/J
4r	4a/ 4f#/ 4d#/ 4B/	.	8cc#/
.	.	.	8b/
=24	=24	=24	=24
*2\right	*	*	*
2E\	(>4g#/ 4e/ 4B/	.	4.gg#\
.	4g#/ 4e/ 4B#X/	.	.
.	.	.	8ff#\
=25	=25	=25	=25
4EE/	8a/ 8e/ 8c#/)	.	8.ff#\
.	8r	.	.
.	.	.	16ee\
4r	4a/ 4e/ 4c#/	.	8cc#\
.	.	.	8ee\
=26	=26	=26	=26
4E\	4r	.	4b\
4r	4g#/ 4e/ 4B/	.	4r
=27	=27	=27	=27
4D#\	4r	.	8cc#\
.	.	.	8b\
4r	4f#/ 4B/	.	8a#X\
.	.	.	8b\
=28	=28	=28	=28
(4C#\	(4f#/ 4e/ 4A#X/	.	(4ee\
4F#\)	4a#X/ 4f#/ 4e/)	.	8a#X/)
.	.	.	16r
.	.	.	16a#/
=29	=29	=29	=29
4BB/	8b/ 8f#/ 8d#/	.	8b/L
.	8r	.	8an/J
4r	(>4a/ 4d#/ 4B/	.	8f#/
.	.	.	16r
.	.	.	16b\
!!LO:PB:g=original
=30	=30	=30	=30
8E/ 8EE/	8g#/ 8e/ 8B/)	.	8f#/
!	!LO:TUP:a:problem=klamra łukowa	!	!
8r	24gg#\LL	.	8r
.	24dd#\	.	.
.	24ee\JJ	.	.
4r	(8ff#^<\L	.	4r
!	!LO:TUP:a:problem=klamra łukowa	!	!
.	24ee\L)	.	.
.	24a#X\	.	.
.	24b\JJ	.	.
=31	=31	=31	=31
4r	(8cc#^/L	.	2r
!	!LO:TUP:a:problem=klamra łukowa	!	!
.	24b/L)	.	.
.	24g#/	.	.
.	24e/JJ	.	.
8r	8B/	.	.
(8A\ 8BB\	(8a/ 8d#/	.	.
=32	=32	=32	=32
(8E\L 8EE\)	8g#/ 8e/)	.	4r
8BB\	8r	.	.
8E\	4r	.	8r
8BB\J)	.	.	8b\
=33	=33	=33	=33
(8GG#\L	4r	.	8a#X/L
8BB\	.	.	8b/J
8E\)	8r	.	8cc#\
8BB\J	8e/	.	8b\
=34	=34	=34	=34
(8EE\L	(8d#/L	.	4.ee\
8BB\	8e/	.	.
8G#\	8cc#/	.	.
8BB\J)	8b/J)	.	8dd#\
=35	=35	=35	=35
(8EE\L	(8b/L	.	8dd#\
8C#\	8a/	.	8cc#\
8A\	8e/	.	8a/
8C#\J)	8a/J)	.	8cc#\
=36	=36	=36	=36
(8EE\L	8g#/	.	4b\
!	!LO:TUP:a:problem=klamra łukowa	!	!
8BB\	24gg#\LL	.	.
.	24dd#\	.	.
.	24ee\JJ	.	.
8G#\	8b\	.	8r
!	!LO:TUP:a:problem=klamra łukowa	!	!
8BB\J)	24g#/LL	.	8g#/
.	24d#/	.	.
.	24e/JJ	.	.
=37	=37	=37	=37
(8EE\L	8B/	.	8f##X/L
8BB\	8r	.	8g#/J
8E\	4r	.	8a/
8BB\J)	.	.	8g#/
=38	=38	=38	=38
(8DD#\L	8r	.	4.b/
!	!LO:TUP:a:problem=klamra łukowa	!	!
8BB\	24aa\LL	.	.
.	24ee#X\	.	.
.	24ff#\JJ	.	.
8F#\	4b\	.	.
8BB\J)	.	.	8a/
=39	=39	=39	=39
(8EE\L	8r	.	8a/
!	!LO:TUP:a:problem=klamra łukowa	!	!
8BB\	24gg#\LL	.	8g#/
.	24dd#\	.	.
.	24ee\JJ	.	.
8G#\	4b\	.	8e/
8BB\J)	.	.	8g#/
!!LO:LB:g=original
=40	=40	=40	=40
(8BBB/L	8r	.	4f#/
!	!LO:TUP:a:problem=klamra łukowa	!	!
8BB/	24ff#\LL	.	.
.	24ee#X\	.	.
.	24ff#\JJ	.	.
8B/ 8F#/ 8D#/	4bb\	.	4r
8BB/J)	.	.	.
=41	=41	=41	=41
*tremolo	*	*	*
*2\right	*	*	*
(8B\L 8F#\ 8Dn\	2r	.	8.b/
8BB\	.	.	.
.	.	.	16a#X/
8B\ 8F#\ 8D\	.	.	8b\
8BB\J)	.	.	8cc#\
=42	=42	=42	=42
8DDn/L	8r	.	4ddn\
!	!LO:TUP:a:problem=klamra łukowa	!	!
8AA/	24aa\LL	.	.
.	24gg#X\	.	.
.	24aa\JJ	.	.
8A/ 8F#/ 8Dn/	4ddd#\	.	8dd\
8AA/J	.	.	8dd\
=43	=43	=43	=43
8A\L 8Fn\ 8Dn\	2r	.	8cc#\
8AA\	.	.	8b\
8A\ 8F\ 8D\	.	.	8a/
8AA\J	.	.	8b/
=44	=44	=44	=44
!LO:TX:a:t=P:mixedbeam:problem	!	!	!
(8AAA/L	8r	.	4cc#\
!	!LO:TUP:a:problem=klamra łukowa	!	!
8E\	24ee\LL	.	.
.	24dd#X\	.	.
.	24ee\JJ	.	.
8c#\ 8A\	4aa\	.	4r
8E\J)	.	.	.
=45	=45	=45	=45
(8cn\L 8A\	2r	.	8.a/
8E\	.	.	.
.	.	.	16g#/
8c\ 8A\	.	.	8a/
8E\J)	.	.	8b/
=46	=46	=46	=46
!LO:TX:a:t=P:problem=mixedbeam	!	!	!
8CCn/L	8r	.	4ccn\
!	!LO:TUP:a:problem=klamra łukowa	!	!
8Gn\	24ggn\LL	.	.
.	24ff#X\	.	.
.	24gg\JJ	.	.
8e\ 8cn\	4cccn\	.	8cc\
8G\J	.	.	8cc\
=47	=47	=47	=47
8e-X\L 8cn\	2r	.	8b/L
8Gn\	.	.	8a/J
8e-X\ 8c\	.	.	8gn/
8G\J	.	.	8a/
*Xtremolo	*	*	*
=48	=48	=48	=48
8GGn\L	8r	.	4b\
!	!LO:TUP:a:problem=klamra łukowa	!	!
8Dn\	24ddn\LL	.	.
.	24cc#X\	.	.
.	24dd\JJ	.	.
8B\ 8G#\	4ggn\	.	4r
8D\J	.	.	.
=49	=49	=49	=49
8FF#/L	8r	.	8a#X/
!	!LO:TUP:a:problem=klamra łukowa	!	!
8BB/	24b\LL	.	8b/
.	24cc#\	.	.
.	24b\JJ	.	.
8A/ 8D#/	4bb\	.	8.cc#\
8BB/J	.	.	.
.	.	.	16b\
=50	=50	=50	=50
4EE/	8r	.	4ee\
.	8g#/ 8e/ 8B/	.	.
4E\	8r	.	8.ee\
.	8g#/ 8e/ 8B#X/	.	.
.	.	.	16dd#\
!!LO:LB:g=original
=51	=51	=51	=51
4EE/	8r	.	8ff#\L
.	8a/ 8e/ 8c#/	.	8ee\J
4E\	8r	.	8dd#\
.	8a/ 8e/ 8c#/	.	8cc#\
=52	=52	=52	=52
4DD#/	8r	.	4b\
.	8a/ 8f#/ 8B/	.	.
4BB/	8r	.	4r
.	8a/ 8f#/ 8d#/	.	.
=53	=53	=53	=53
2BBB/	8r	.	8a#X/
*	*tremolo	*	*
.	8a/ 8f#/ 8d#/ 8B/L	.	8b/
.	8a/ 8f#/ 8d#/ 8B/	.	8cc#\
.	8a/ 8f#/ 8d#/ 8B/J	.	8b\
*	*Xtremolo	*	*
=54	=54	=54	=54
4EE/	8r	.	4gg#\
.	8g#/L 8e/ 8B/	.	.
4E/ 4EE/	8g#/ 8e/ 8B#X/	.	8ff#\
.	8g#/J 8e/ 8B#/	.	8ee\
=55	=55	=55	=55
4EE/	8r	.	8ff#\L
.	8b/ 8e/ 8c#/	.	8ee\J
4E\	8r	.	8cc#\
.	8a/ 8e/ 8c#/	.	8ee\
=56	=56	=56	=56
4E\	8r	.	4b\
.	8g#/ 8e/ 8B/	.	.
4D#\	8r	.	4r
.	8f#/ 8B/	.	.
=57	=57	=57	=57
4E\	8r	pp	8.cc#\
.	8e/ 8B/ 8G#/	.	.
.	.	.	16b\
4BB\	8r	.	8a#X/
.	8d#</ 8B</ 8F#</	.	8b/
=58	=58	=58	=58
4Cn\	8r	.	4ee\
.	8e</ 8Gn</ 8E</	.	.
4AA#X\	8r	.	8dd#\
.	8e</ 8c#</ 8F##X</	.	8cc#\
=59	=59	=59	=59
2BB\	8r	.	8cc#\L
!	!LO:TX:a:t=P:problem=mixedbeam	!	!
.	8d#</L 8F#</	.	8b\J
.	8a\ 8B\	.	8f#/
.	8d#</J 8A</	.	16r
.	.	.	16b\
=60	=60	=60	=60
8BB\ 8EE\	8e/ 8G#/	.	4e/
!	!LO:TUP:a:problem=klamra łukowa	!	!
8r	24gg#\LL	.	.
.	24dd#\	.	.
.	24ee\JJ	.	.
4r	(8ff#\L	.	4r
!	!LO:TUP:a	!	!
.	24ee\L)	.	.
.	24a#X\	.	.
.	24b\JJ	.	.
=61	=61	=61	=61
!	!LO:TUP:a	!	!
4r	(8cc#\L	.	2r
.	24b\L)	.	.
.	24g#\	.	.
.	24e\JJ	.	.
8r	8B/	.	.
(8D#\	(>8a/ 8f#/ 8B/	.	.
=62	=62	=62	=62
4E\)	4g#/ 4e/ 4B/)	.	2r
4BB\ 4BBB\	4e/ 4G#/	.	.
=63	=63	=63	=63
2BB\ 2EE;<\	2e/ 2G#;/	.	2r;
==;	==;	==	==
*-	*-	*-	*-
!!!system-decoration: [s1,s2,s3]
!!!RDF**kern: > = above
!!!RDF**kern: < = below
!!!EED: Leszek Kubiak
!!!EEV: 2021-04-21
!!!ENC: Berenika Jozajtis
!!!END: 2021-04-01
